X: 20297
T: John Blessing's
R: reel
M: 4/4
K: Gmajor
A~F3 EFDF|AFAB dedB|A~F3 EFDF|1 AFAB ~d3B:|2 AFAB ~d3A||
defd efdB|AFAB dgfe|defd efdB|AFAB ~d3A|
defd efdB|AFAB dgfe|d~f3 afbf|

